src/images/facebook.svg

<svg fill="none" height="53" viewBox="0 0 54 53" width="54" xmlns="http://www.w3.org/2000/svg"><path d="m41.8132 0c.4532.463085 1.1002.430244 1.6585.597743 5.8329 1.757097 9.7807 6.837887 9.8201 12.913857.0591 8.5873.0591 17.1768 0 25.7685-.069 7.4094-5.8297 13.1536-13.2423 13.3178-2.7325.0624-5.4716 0-8.2107.0329-.9163.0164-1.2284-.2759-1.2251-1.2152.0285-5.4169.0197-10.8338-.0262-16.2507 0-1.0313.3711-1.3925 1.3432-1.2743.2187.0148.4382.0148.6569 0 4.3648-.0361 4.3648-.0361 4.9264-4.4338.427-3.327.427-3.327-2.9328-3.3598-4.0102-.0394-4.0102-.0394-3.9839-4.0725.0263-4.0332 1.0444-5.0119 5.1071-4.9068 2.7949.069 2.8212.069 2.7719-2.6832-.0295-1.5207.6339-3.4847-.2791-4.4404-.9853-1.04441-3.0084-.32843-4.5751-.39083-3.1003-.12481-6.0036.41053-8.3026 2.74563-1.7473 1.7768-2.8344 3.8262-2.9559 6.3847-.122 2.0208-.1406 4.0466-.0558 6.0694.0591 1.1035-.2299 1.5994-1.4353 1.5075-1.3597-.1019-2.7358.0164-4.102-.0559-.8901-.0493-1.2973.1675-1.2645 1.1495.0624 1.8031.0723 3.6127 0 5.4158-.0427 1.0608.4368 1.3137 1.3663 1.2907 1.3662-.0262 2.7358.0723 4.1021.0329.8703-.0263 1.294.1872 1.2874 1.1626-.0296 5.4191 0 10.8382 0 16.2507 0 .5682.023 1.1101-.8178 1.0937-3.1135-.069-6.2402.3284-9.3438-.1807-6.28286-1.028-11.07463-6.1744-11.245415-12.7036-.239753-9.0745-.210197-18.1654-.032845-27.2432.11495-5.75736 4.72609-10.80203 10.50976-12.151874.4204-.098528.8309-.239753 1.248-.36455602z" fill="#3b7ae1"/></svg>

<svg width="54" height="53" viewBox="0 0 54 53" fill="none" xmlns="http://www.w3.org/2000/svg">
<path d="M41.8132 0C42.2664 0.463085 42.9134 0.430244 43.4717 0.597743C49.3046 2.35484 53.2524 7.43563 53.2918 13.5116C53.3509 22.0989 53.3509 30.6884 53.2918 39.2801C53.2228 46.6895 47.4621 52.4337 40.0495 52.5979C37.317 52.6603 34.5779 52.5979 31.8388 52.6308C30.9225 52.6472 30.6104 52.3549 30.6137 51.4156C30.6422 45.9987 30.6334 40.5818 30.5875 35.1649C30.5875 34.1336 30.9586 33.7724 31.9307 33.8906C32.1494 33.9054 32.3689 33.9054 32.5876 33.8906C36.9524 33.8545 36.9524 33.8545 37.514 29.4568C37.941 26.1298 37.941 26.1298 34.5812 26.097C30.571 26.0576 30.571 26.0576 30.5973 22.0245C30.6236 17.9913 31.6417 17.0126 35.7044 17.1177C38.4993 17.1867 38.5256 17.1867 38.4763 14.4345C38.4468 12.9138 39.1102 10.9498 38.1972 9.9941C37.2119 8.94969 35.1888 9.66567 33.6221 9.60327C30.5218 9.47846 27.6185 10.0138 25.3195 12.3489C23.5722 14.1257 22.4851 16.1751 22.3636 18.7336C22.2416 20.7544 22.223 22.7802 22.3078 24.803C22.3669 25.9065 22.0779 26.4024 20.8725 26.3105C19.5128 26.2086 18.1367 26.3269 16.7705 26.2546C15.8804 26.2053 15.4732 26.4221 15.506 27.4041C15.5684 29.2072 15.5783 31.0168 15.506 32.8199C15.4633 33.8807 15.9428 34.1336 16.8723 34.1106C18.2385 34.0844 19.6081 34.1829 20.9744 34.1435C21.8447 34.1172 22.2684 34.3307 22.2618 35.3061C22.2322 40.7252 22.2618 46.1443 22.2618 51.5568C22.2618 52.125 22.2848 52.6669 21.444 52.6505C18.3305 52.5815 15.2038 52.9789 12.1002 52.4698C5.81734 51.4418 1.02557 46.2954 0.854785 39.7662C0.615032 30.6917 0.644588 21.6008 0.82194 12.523C0.93689 6.76564 5.54803 1.72097 11.3317 0.371126C11.7521 0.272598 12.1626 0.131373 12.5797 0.00656998L41.8132 0Z" fill="#3B7AE1"/>
</svg>
